data/icons/ui/pill-capsule-symbolic.svg

<?xml version="1.0" encoding="UTF-8" standalone="no"?>
<svg
   height="16"
   width="16"
   xml:space="preserve"
   version="1.1"
   id="svg2"
   sodipodi:docname="pill-capsule-symbolic.svg"
   inkscape:version="1.3 (0e150ed6c4, 2023-07-21)"
   xmlns:inkscape="http://www.inkscape.org/namespaces/inkscape"
   xmlns:sodipodi="http://sodipodi.sourceforge.net/DTD/sodipodi-0.dtd"
   xmlns="http://www.w3.org/2000/svg"
   xmlns:svg="http://www.w3.org/2000/svg"><defs
     id="defs2" /><sodipodi:namedview
     id="namedview2"
     pagecolor="#ffffff"
     bordercolor="#000000"
     borderopacity="0.25"
     inkscape:showpageshadow="2"
     inkscape:pageopacity="0.0"
     inkscape:pagecheckerboard="0"
     inkscape:deskcolor="#d1d1d1"
     inkscape:zoom="30.759145"
     inkscape:cx="4.9091092"
     inkscape:cy="11.65507"
     inkscape:window-width="1920"
     inkscape:window-height="1011"
     inkscape:window-x="0"
     inkscape:window-y="0"
     inkscape:window-maximized="1"
     inkscape:current-layer="svg2" /><path
     id="rect2"
     style="color:#000000;fill:#000000;fill-rule:evenodd;stroke-linecap:round;stroke-linejoin:round;-inkscape-stroke:none;paint-order:stroke markers fill"
     d="M 13.896099,2.1039006 C 12.317184,0.52498534 9.7108231,0.63232278 8.1039007,2.2392452 L 2.239245,8.1039007 C 0.63232296,9.7108228 0.52498511,12.317184 2.1039006,13.896099 3.6828163,15.475015 6.2891781,15.367676 7.8960993,13.760755 L 13.760755,7.8960994 C 15.367677,6.2891773 15.475014,3.6828155 13.896099,2.1039006 Z M 6.5857864,6.5857864 9.4142136,9.4142136 6.4818857,12.346541 C 5.5883327,13.240094 4.289771,13.253543 3.5181141,12.481886 2.7464572,11.710229 2.759906,10.411667 3.6534586,9.5181143 Z"
     sodipodi:nodetypes="sssssssccsssc" /></svg>

<svg xmlns="http://www.w3.org/2000/svg" xml:space="preserve" width="16" height="16"><path d="M13.896 2.104C12.317.525 9.711.632 8.104 2.239L2.239 8.104C.632 9.71.525 12.317 2.104 13.896s4.185 1.472 5.792-.135l5.865-5.865c1.607-1.607 1.714-4.213.135-5.792m-7.31 4.482 2.828 2.828-2.932 2.933c-.894.893-2.192.907-2.964.135s-.758-2.07.135-2.964Z" style="color:#000;fill:#000;fill-rule:evenodd;stroke-linecap:round;stroke-linejoin:round;-inkscape-stroke:none;paint-order:stroke markers fill"/></svg>
